public/logo.svg

<?xml version="1.0" encoding="UTF-8"?>
<svg width="100" height="100" fill="none" version="1.1" viewBox="0 0 100 100" xmlns="http://www.w3.org/2000/svg" xmlns:cc="http://creativecommons.org/ns#" xmlns:dc="http://purl.org/dc/elements/1.1/" xmlns:rdf="http://www.w3.org/1999/02/22-rdf-syntax-ns#">
 <metadata>
  <rdf:RDF>
   <cc:Work rdf:about="">
    <dc:format>image/svg+xml</dc:format>
    <dc:type rdf:resource="http://purl.org/dc/dcmitype/StillImage"/>
    <dc:title/>
   </cc:Work>
  </rdf:RDF>
 </metadata>
 <rect width="100" height="100" fill="none"/>
 <path d="m87.059 13.222-36.059-10.222-36.059 10.222c-3.6059 1.8038-4.8078 2.1534-4.8078 7.2152 0 5.0619-1.202 34.272 3.6058 45.696 3.0365 7.2152 7.2117 18.038 37.261 31.867 30.049-13.829 34.224-24.652 37.261-31.867 4.8078-11.424 3.6058-40.634 3.6058-45.696 0-5.0618-1.2019-5.4114-4.8078-7.2152z" fill="#fff" stroke="#253A3C" stroke-width="2.5"/>
 <path d="m53 85.793c-28.286-13.883-25.339-37.423-24.161-65.793l-3.5357 1.8108-3.5357 1.2072-1.7679 3.6216v18.108l0.5893 9.0541 1.7678 6.036 2.3572 5.1307 2.3571 5.1306 5.8929 6.6396 17.089 10.261 2.9464-1.2072z" fill="#DCE1E5"/>
 <path d="m78.264 21.854-27.264-7.8544-27.264 7.8544c-2.7264 1.3861-3.6352 1.6547-3.6352 5.5443 0 3.8897-0.9088 26.336 2.7264 35.114 2.2959 5.5443 5.4527 13.861 28.173 24.487 22.72-10.627 25.877-18.943 28.173-24.487 3.6352-8.7785 2.7264-31.224 2.7264-35.114 0-3.8896-0.9088-4.1582-3.6352-5.5443z" stroke="#253A3C" stroke-width="2.5"/>
 <rect transform="rotate(-.20752 38.928 43.911)" x="38.928" y="43.911" width="24.118" height="18.088" rx="3" fill="#01DE86"/>
 <path d="m43.756 45.1-0.0175-4.8235c-0.0144-3.996 3.2132-7.247 7.2091-7.2615s7.247 3.2131 7.2614 7.2091l0.0175 4.8234" stroke="#01DE86" stroke-width="2"/>
 <circle transform="rotate(-.20752 51.018 52.309)" cx="51.018" cy="52.309" r="3.6176" fill="#fff"/>
</svg>

<svg width="100" height="100" viewBox="0 0 100 100" fill="none" xmlns="http://www.w3.org/2000/svg">
<rect width="100" height="100" fill="white"/>
<path d="M87.0586 13.2215L51 3L14.9414 13.2215C11.3355 15.0253 10.1336 15.3749 10.1336 20.4367C10.1336 25.4986 8.9316 54.7089 13.7394 66.1329C16.7759 73.3481 20.9511 84.1709 51 98C81.0489 84.1709 85.2241 73.3481 88.2606 66.1329C93.0684 54.7089 91.8664 25.4986 91.8664 20.4367C91.8664 15.3749 90.6645 15.0253 87.0586 13.2215Z" stroke="#253A3C" stroke-width="2.5"/>
<path d="M53 85.7928C24.7143 71.9099 27.6607 48.3694 28.8393 20L25.3036 21.8108L21.7679 23.018L20 26.6396V35.0901V44.7477L20.5893 53.8018L22.3571 59.8378L24.7143 64.9685L27.0714 70.0991L32.9643 76.7387L50.0536 87L53 85.7928Z" fill="#DCE1E5"/>
<path d="M78.2638 21.8544L51 14L23.7362 21.8544C21.0098 23.2405 20.101 23.5091 20.101 27.3987C20.101 31.2884 19.1922 53.7342 22.8274 62.5127C25.1233 68.057 28.2801 76.3734 51 87C73.7199 76.3734 76.8767 68.057 79.1726 62.5127C82.8078 53.7342 81.899 31.2884 81.899 27.3987C81.899 23.5091 80.9902 23.2405 78.2638 21.8544Z" stroke="#253A3C" stroke-width="2.5"/>
<rect x="38.9281" y="43.9114" width="24.1176" height="18.0882" rx="3" transform="rotate(-0.207518 38.9281 43.9114)" fill="#01DE86"/>
<path d="M43.756 45.0998L43.7385 40.2763C43.7241 36.2803 46.9517 33.0293 50.9476 33.0148C54.9435 33.0003 58.1946 36.2279 58.209 40.2239L58.2265 45.0473" stroke="#01DE86" stroke-width="2"/>
<circle cx="51.0175" cy="52.3088" r="3.61765" transform="rotate(-0.207518 51.0175 52.3088)" fill="white"/>
</svg>
